pine-tree-box.svg

<svg fill="currentColor" viewBox="0 0 24 24"><path d="M4 2h16a2 2 0 0 1 2 2v16a2 2 0 0 1-2 2H4a2 2 0 0 1-2-2V4a2 2 0 0 1 2-2m7 17h2v-2h5l-4-4h3l-4-4h3l-4-4-4 4h3l-4 4h3l-4 4h5z"/></svg>

<svg  viewBox="0 0 24 24" fill="currentColor"><path  d="M4,2H20A2,2 0 0,1 22,4V20A2,2 0 0,1 20,22H4A2,2 0 0,1 2,20V4A2,2 0 0,1 4,2M11,19H13V17H18L14,13H17L13,9H16L12,5L8,9H11L7,13H10L6,17H11V19Z"/></svg>
